!!!COM: Palestrina, Giovanni Perluigi da
!!!OPR: Missa Iste confessor
!!!OMD: Benedictus
!!!OTL: First Section
**kern	**kern	**kern
*Ibass	*Ibass	*Icalto
!Bassus 2	!Bassus 1	!Altus
*clefF4	*clefF4	*clefG2
*k[]	*k[]	*k[]
*G:mix	*G:mix	*G:mix
*M4/2	*M4/2	*M4/2
=1	=1	=1
0r	0r	0d
=2	=2	=2
1r	0r	1e
[1G	.	1d
=3	=3	=3
1G]	0r	1B
1A	.	1c
=4	=4	=4
1G	0r	2d
.	.	1e
2E	.	.
2F	.	4d
.	.	4c
=5	=5	=5
2G	1r	2B
1A	.	2c
.	[1D	2d
[2G	.	2B
=6	=6	=6
2G]	1D]	1A
2F#	.	.
2G	1E	2G
2G	.	[2g
=7	=7	=7
1A	1D	2g]
.	.	2f#
2G	2BB	1g
2E	2C	.
=8	=8	=8
2F	2D	0r
2.G	2.E	.
4F	4D	.
2F	[2D	.
=9	=9	=9
1E	2D]	1r
.	2C#	.
2D	1D	[1d
4GG	.	.
4AA	.	.
=10	=10	=10
4BB	1GG	1d]
4C	.	.
2.D	.	.
.	1r	1e
4C	.	.
[2C	.	.
=11	=11	=11
2C]	0G	1d
2BB	.	.
1E	.	2B
.	.	2c
=12	=12	=12
2D	1A	2d
2.C	.	2.e
.	1G	.
4BB	.	4d
2GG	.	[2d
=13	=13	=13
1AA	2E	2d]
.	2F#	2c
2E	2G	2B
2F#	[2A	2A
=14	=14	=14
2G	4A]	1B
.	4G	.
2GG	1G	.
2.D	.	1A
.	2F#	.
4C	.	.
=15	=15	=15
2BB	0G	1G
1C	.	.
.	.	2r
4BB	.	2d
4AA	.	.
=16	=16	=16
0GG	2r	2.d
.	2G	.
.	.	4c
.	2.G	2B
.	.	[2e
.	4F	.
=17	=17	=17
0r	2E	4e]
.	.	4d
.	2.A	4c
.	.	4B
.	.	4c
.	4G	4B
.	4F	4A
.	4E	4G
=18	=18	=18
0r	4F	4A
.	4E	4B
.	4E	1c
.	8D	.
.	8C	.
.	2D	.
.	2D	2B
=19	=19	=19
2r	1C	2c
2C	.	2e
2.C	2r	2.e
.	2G	.
4BB	.	4d
=20	=20	=20
2AA	2.A	2c
2.D	.	2.f
.	4G	.
.	2F	.
4C	.	4e
4BB	[2G	4d
4AA	.	4c
=21	=21	=21
2GG	4G]	2B
.	4F	.
4C	4E	1c
4D	4D	.
4E	2C	.
4F	.	.
[2G	2GG	2B
=22	=22	=22
2G]	2.D	[0A
4F	.	.
4E	4C	.
2F	4D	.
.	4E	.
[2D	[2F	.
=23	=23	=23
2D]	2F]	0A]
2C	2.E	.
1F	.	.
.	4D	.
.	[2D	.
=24	=24	=24
2.E	2D]	1r
.	2C#	.
4E	.	.
1D	2.D	2r
.	.	2d
.	4C	.
=25	=25	=25
2r	4BB	2.d
.	4AA	.
2G	2GG	.
.	.	4c
2.G	2r	2B
.	2C	2e
4F	.	.
=26	=26	=26
2E	2.C	2.e
2.A	.	.
.	4BB	4d
.	2AA	2c
4G	.	.
4F	[2D	[2f
4E	.	.
=27	=27	=27
2D	4D]	4f]
.	4C	4e
2.G	4BB	4d
.	4AA	4c
.	2GG	2B
4F	.	.
4E	4C	[2c
4D	4D	.
=28	=28	=28
1C	4E	2c]
.	4F#	.
.	1G	2B
2.D	.	1A
.	2F#	.
4D	.	.
=29	=29	=29
0GG	0G	0B
*-	*-	*-
!!!CDT: 1525/^1526/-1594/2/2
!!!OCY: Italia
!!!AGN: Mass (Paraphrase)
!!!AST: renaissance, vocal
!!!ASW: Hymn
!!!PWK: Masses, Book 5
!!!RNB: Cadence finals: D
!!!YOR: Le Opere Complete, v. 15, p. 72
!!!YOO: Rome, Italy: Fratelli Scalera
!!!END: 1992//
!!!EED: John Miller
!!!YEC: Copyright 2000, John Miller
!!!YEN: United States of America
!!!YEM: Rights to all derivative electronic formats reserved.
!!!YEM: Refer to licensing agreement for further details.
!!!YEM: This file must be accompanied by the licensing agreement.
!!!YEM: A copy of the licensing agreement may be found at http://www.music-cog.ohio-state.edu/HumdrumDatabases/Palestrina/license.txt
!!!EMD: converted to Humdrum by Bret Aarden
